X:1
T:Title
%%score { ( 1 4 ) | ( 2 3 ) }
L:1/8
M:3/4
K:Db
V:1 treble nm="Grand Piano"
V:4 treble 
V:2 bass 
V:3 bass 
V:1
 z2 z2[Q:1/4=100] F>E | D2 F2 [GB]2 | [FA]2 [DF]2 [FA]2 | [Fd]2 [Ac]2 .[B,GB]2 | %4
 [DFA]4 [A,FA]>[A,FA] | [A,CEA]2 [CE]2 [DF]2 | [EG]2 [DF]2 [EG]2 | [GB]2 [FA]2 [EG]2 | %8
 [DF]4 [DF]>[EG] | [FA]2 [FA]2 [FA]2 | [FA]2 [DF]2 [FA]2 | [Fd]2 [Fd]2 [Gd]2 | [Fd]4 [FA]>[FA] | %13
 B2 d2 B2 | [FA]2 [DF]2 [FA]2 | c2 B2 c2 |[M:2/4] [Fd]4 |[M:1/4] F>E |[M:3/4] D2 F2 B2 | A2 F2 A2 | %20
 [Fd]2 [Fd]2 [Gd]2 | [Fd]4 [FA]>[FA] | B2 d2 B2 | [DFA]2 [A,DF]2 [DFA]2 | [A,DA]2 [A,CG]2 [A,DF]2 | %25
 [A,CE]4 [CGA]2 | [FA]6- | [FA]2 z2 z2 | [GB]6 | [DBd]2 c2 B>B | A2 [Ad]2 [Af]2 | e2 B2 c2 | %32
 [Fd]3 [Fd] [Gd]2 |[M:2/4] [Fd]4 |] %34
V:2
 z2 z2 [D,A,D]>[D,G,D] | [D,F,]2 [D,A,D]2 [D,D]2 | [D,D]2 [D,A,]2 [D,D]2 | [D,A,]2 [D,A,]2 z C | %4
 D,4 D,>D, | A,,2 [A,,A,]2 [A,,A,]2 | [A,,A,]2 [A,,A,]2 [A,,A,]2 | [A,,A,]2 [B,,A,]2 [C,A,]2 | %8
 [D,A,]4 [D,A,]>[D,A,] | [D,D]2 [D,D]2 [D,D]2 | [D,D]2 [D,A,]2 [D,D]2 | [D,A,]2 [D,A,]2 [D,B,]2 | %12
 [D,A,]4 [D,D]>[D,D] | [G,DG]2 [G,B,G]2 [G,DG]2 | [D,D]2 [D,A,]2 [D,D]2 | [A,EG]2 [A,EG]2 [A,G]2 | %16
[M:2/4][K:bass] [D,A,]4 |[M:1/4] F,>E, |[M:3/4] D,2 F,2 B,2 | A,2 F,2 A,2 | %20
 [D,A,]2 [D,A,]2 [D,B,]2 | [D,A,]4 [D,D]>[D,D] | [G,DG]2 [G,B,G]2 [G,DG]2 | D,2 D,2 D,2 | %24
 F,2 E,2 D,2 | A,,4 A,2 | D,2 D,2 D,2 | D,2 D2 D,2 | G,2 G,2 G,2 | G,2[K:treble] A2 [G,DG]>[G,DG] | %30
 [A,DF]2[K:bass] [F,D]2 [D,D]2 | [G,B,G]2 [G,EG]2 [A,EG]2 | [D,D]3 [D,A,] [D,B,]2 | %33
[M:2/4] [D,A,]4 |] %34
V:3
 x6 | x6 | x6 | z2 z2 D,2 | x6 | x6 | x6 | x6 | x6 | x6 | x6 | x6 | x6 | x6 | x6 | x6 | %16
[M:2/4][K:bass] x4 |[M:1/4] x2 |[M:3/4] x6 | x6 | x6 | x6 | x6 | x6 | x6 | x6 | x6 | x6 | x6 | %29
 x2[K:treble] x4 | x2[K:bass] x4 | x6 | x6 |[M:2/4] x4 |] %34
V:4
 x6 | x6 | x6 | x6 | x6 | x6 | x6 | x6 | x6 | x6 | x6 | x6 | x6 | x6 | x6 | x6 |[M:2/4] x4 | %17
[M:1/4] x2 |[M:3/4] x6 | x6 | x6 | x6 | x6 | x6 | x6 | x6 | D2 D2 D2 | D2 F2 [DFA]2 | D2 D2 D2 | %29
 x6 | x6 | x6 | x6 |[M:2/4] x4 |] %34

